svgs/sharp-regular/faucet-drip.svg

<svg xmlns="http://www.w3.org/2000/svg" viewBox="0 0 512 512"><!--! Font Awesome Pro 6.6.0 by @fontawesome - https://fontawesome.com License - https://fontawesome.com/license (Commercial License) Copyright 2024 Fonticons, Inc. --><path d="M248 128l40 0 9.9 0 7 7 25 25 30.1 0c83.9 0 152 68.1 152 152l0 48 0 24-24 0-112 0-24 0 0-24 0-32c0-4.4-3.6-8-8-8l-20.1 0c-23.4 29.2-59.5 48-99.9 48s-76.5-18.8-99.9-48L24 320 0 320l0-48 24 0 112.3 0 13.1 0 7.1 11.1C170.8 305.3 195.7 320 224 320s53.2-14.7 67.4-36.9l7.1-11.1 13.1 0 32.3 0c30.9 0 56 25.1 56 56l0 8 64 0 0-24c0-57.4-46.6-104-104-104l-40 0-9.9 0-7-7-25-25-100.1 0-25 25-7 7-9.9 0L24 208 0 208l0-48 24 0 102.1 0 25-25 7-7 9.9 0 32 0 0-45.6L64 96l0-64L200 45.6 200 0l48 0 0 45.6L384 32l0 64L248 82.4l0 45.6zM432 416l27.8 48.7c2.7 4.8 4.2 10.2 4.2 15.7c0 17.5-14.2 31.6-31.6 31.6l-.8 0c-17.5 0-31.6-14.2-31.6-31.6c0-5.5 1.4-10.9 4.2-15.7L432 416z"/></svg>

<svg xmlns="http://www.w3.org/2000/svg" viewBox="0 0 512 512"><!--! Font Awesome Pro 6.4.0 by @fontawesome - https://fontawesome.com License - https://fontawesome.com/license (Commercial License) Copyright 2023 Fonticons, Inc. --><path d="M248 128h40 9.9l7 7 25 25H360c83.9 0 152 68.1 152 152v48 24H488 376 352V360 328c0-4.4-3.6-8-8-8H323.9c-23.4 29.2-59.5 48-99.9 48s-76.5-18.8-99.9-48H24 0V272H24 136.3h13.1l7.1 11.1C170.8 305.3 195.7 320 224 320s53.2-14.7 67.4-36.9l7.1-11.1h13.1H344c30.9 0 56 25.1 56 56v8h64V312c0-57.4-46.6-104-104-104H320h-9.9l-7-7-25-25H177.9l-25 25-7 7H136 24 0V160H24 126.1l25-25 7-7H168h32V82.4L64 96V32L200 45.6V0h48V45.6L384 32V96L248 82.4V128zM432 416l27.8 48.7c2.7 4.8 4.2 10.2 4.2 15.7c0 17.5-14.2 31.6-31.6 31.6h-.8c-17.5 0-31.6-14.2-31.6-31.6c0-5.5 1.4-10.9 4.2-15.7L432 416z"/></svg>
